svgs/sharp-thin/suitcase-medical.svg

<svg xmlns="http://www.w3.org/2000/svg" viewBox="0 0 512 512"><!--! Font Awesome Pro 6.6.0 by @fontawesome - https://fontawesome.com License - https://fontawesome.com/license (Commercial License) Copyright 2024 Fonticons, Inc. --><path d="M128 0l8 0L376 0l8 0 0 8 0 88 112 0 16 0 0 16 0 352 0 16-16 0L16 480 0 480l0-16L0 112 0 96l16 0 112 0 0-88 0-8zM368 16L144 16l0 80 224 0 0-80zM104 112l0 352 304 0 0-352-32 0-240 0-32 0zM88 464l0-352-72 0 0 352 72 0zM424 112l0 352 72 0 0-352-72 0zM224 176l64 0 8 0 0 8 0 64 64 0 8 0 0 8 0 64 0 8-8 0-64 0 0 64 0 8-8 0-64 0-8 0 0-8 0-64-64 0-8 0 0-8 0-64 0-8 8 0 64 0 0-64 0-8 8 0zm8 80l0 8-8 0-64 0 0 48 64 0 8 0 0 8 0 64 48 0 0-64 0-8 8 0 64 0 0-48-64 0-8 0 0-8 0-64-48 0 0 64z"/></svg>

<svg xmlns="http://www.w3.org/2000/svg" viewBox="0 0 512 512"><!--! Font Awesome Pro 6.5.2 by @fontawesome - https://fontawesome.com License - https://fontawesome.com/license (Commercial License) Copyright 2024 Fonticons, Inc. --><path d="M128 0h8H376h8V8 96H496h16v16V464v16H496 16 0V464 112 96H16 128V8 0zM368 16H144V96H368V16zM104 112V464H408V112H376 136 104zM88 464V112H16V464H88zM424 112V464h72V112H424zM224 176h64 8v8 64h64 8v8 64 8h-8H296v64 8h-8H224h-8v-8V328H152h-8v-8V256v-8h8 64V184v-8h8zm8 80v8h-8H160v48h64 8v8 64h48V320v-8h8 64V264H288h-8v-8V192H232v64z"/></svg>
